Yaru++/emotes/16/face-worried.svg

<svg height="16" width="16" xmlns="http://www.w3.org/2000/svg"><g stroke-width="1.142857"><path d="m8 0a8 8 0 1 0 0 16 8 8 0 0 0 0-16zm-2.2857143 4.5714286c.6377143 0 1.1782857.5405714 1.1782857 1.1782857v1.1074286c0 .6377142-.5405714 1.1428571-1.1782857 1.1428571s-1.1428571-.5051429-1.1428571-1.1428571v-1.1074286c0-.6377143.5051428-1.1782857 1.1428571-1.1782857zm4.5714283 0c.637715 0 1.142857.5405714 1.142857 1.1782857v1.1074286c0 .6377142-.505142 1.1428571-1.142857 1.1428571-.637714 0-1.142857-.5051429-1.142857-1.1428571v-1.1074286c0-.6377143.505143-1.1782857 1.142857-1.1782857zm3.428572 6.7920004c-.875429-.489143-1.842286-1.051429-2.829715-1.074286-.745142.02286-1.416.747428-1.741714.796571-.6194284.358857-1.782857.224-2.2857141 0-1.048-.499428-1.0525715-.777143-1.7634286-.8-.9748572.021715-2.0937143.461715-2.808 1.077715v-.571429c.4822857-1.2411429 2.72-2.3371429 4.5714286-.9954286.4.2514286.488.3051426 1.16.3851426.1828571.06286.6765714-.03886 1.1257141-.3851426 1.808-1.3177143 3.762286-.136 4.571429.9942856z" fill="#eab305"/><path d="m5.7142857 4c-.6377143 0-1.1428571.5408571-1.1428571 1.1785714v.5714286c0-.6377143.5051428-1.1785714 1.1428571-1.1785714s1.1785714.5408571 1.1785714 1.1785714v-.5714286c0-.6377143-.5408571-1.1785714-1.1785714-1.1785714zm4.5714283 0c-.637714 0-1.142857.5408571-1.142857 1.1785714v.5714286c0-.6377143.505143-1.1785714 1.142857-1.1785714.637715 0 1.142857.5408571 1.142857 1.1785714v-.5714286c0-.6377143-.505142-1.1785714-1.142857-1.1785714zm5.700893 3.6517857a8 8 0 0 1 -7.986607 7.7767853 8 8 0 0 1 -7.9866071-7.6517853 8 8 0 0 0 7.9866071 8.2232143 8 8 0 0 0 7.986607-8.3482143zm-11.2633927.9709822c-1.1499777.1026115-2.1360714.8225-2.4375 1.5982141v.571428c.4822857-1.2411421 2.72-2.3372493 4.5714286-.995535.4.251428.4887142.303929 1.1607142.383929.1828572.06286.6758572-.03764 1.1249999-.383929 1.808-1.3177143 3.762286-.1369821 4.571429.993303v-.571428c-.809143-1.1302857-2.763429-2.3110179-4.571429-.9933036-.4491427.3462857-.9421427.4467857-1.1249999.3839286-.672-.08-.7607142-.1325-1.1607142-.3839286-.6942858-.5031429-1.443942-.6642455-2.1339286-.6026785z" opacity=".2"/><path d="m8 0a8 8 0 0 0 -7.9866071 8.3482143 8 8 0 0 1 7.9866071-7.77678573 8 8 0 0 1 7.986607 7.65178573 8 8 0 0 0 -7.986607-8.2232143zm-3.4285714 6.8571429v.5714285c0 .6377143.5051428 1.1428572 1.1428571 1.1428572s1.1785714-.5051429 1.1785714-1.1428572v-.5714285c0 .6377142-.5408571 1.1428571-1.1785714 1.1428571s-1.1428571-.5051429-1.1428571-1.1428571zm4.5714284 0v.5714285c0 .6377143.505143 1.1428572 1.142857 1.1428572.637715 0 1.142857-.5051429 1.142857-1.1428572v-.5714285c0 .6377142-.505142 1.1428571-1.142857 1.1428571-.637714 0-1.142857-.5051429-1.142857-1.1428571zm-4.0491071 3.4285711c-.974857.021715-2.0937499.462125-2.8080356 1.078125v.571428c.7142857-.616 1.8331786-1.05641 2.8080356-1.078124.7108573.02286.715393.299679 1.763393.799107.5028571.224 1.6662857.358857 2.2857141 0 .325714-.04914.995929-.771786 1.741072-.794643.987428.02286 1.954928.584518 2.830357 1.07366v-.571428c-.875429-.489143-1.842929-1.050804-2.830357-1.073661-.745143.02286-1.415358.745501-1.741072.794644-.6194284.358857-1.782857.224-2.2857141 0-1.048-.499429-1.0525357-.776251-1.763393-.799108z" fill="#fff" opacity=".3"/></g></svg>

<?xml version="1.0" encoding="UTF-8" standalone="no"?>
<svg
   xmlns:dc="http://purl.org/dc/elements/1.1/"
   xmlns:cc="http://creativecommons.org/ns#"
   xmlns:rdf="http://www.w3.org/1999/02/22-rdf-syntax-ns#"
   xmlns:svg="http://www.w3.org/2000/svg"
   xmlns="http://www.w3.org/2000/svg"
   xmlns:sodipodi="http://sodipodi.sourceforge.net/DTD/sodipodi-0.dtd"
   xmlns:inkscape="http://www.inkscape.org/namespaces/inkscape"
   height="16"
   width="16"
   version="1.1"
   id="svg4"
   sodipodi:docname="face-worried.svg"
   inkscape:version="0.92.4 (5da689c313, 2019-01-14)">
  <metadata
     id="metadata10">
    <rdf:RDF>
      <cc:Work
         rdf:about="">
        <dc:format>image/svg+xml</dc:format>
        <dc:type
           rdf:resource="http://purl.org/dc/dcmitype/StillImage" />
      </cc:Work>
    </rdf:RDF>
  </metadata>
  <defs
     id="defs8" />
  <sodipodi:namedview
     pagecolor="#ffffff"
     bordercolor="#666666"
     borderopacity="1"
     objecttolerance="10"
     gridtolerance="10"
     guidetolerance="10"
     inkscape:pageopacity="0"
     inkscape:pageshadow="2"
     inkscape:window-width="1920"
     inkscape:window-height="1016"
     id="namedview6"
     showgrid="false"
     inkscape:zoom="14.75"
     inkscape:cx="-4.8813559"
     inkscape:cy="8"
     inkscape:window-x="0"
     inkscape:window-y="27"
     inkscape:window-maximized="1"
     inkscape:current-layer="svg4" />
  <path
     d="M 8,0 A 8,8 0 1 0 8,16 8,8 0 0 0 8,0 Z M 5.7142857,4.5714286 C 6.352,4.5714286 6.8925714,5.112 6.8925714,5.7497143 V 6.8571429 C 6.8925714,7.4948571 6.352,8 5.7142857,8 5.0765714,8 4.5714286,7.4948571 4.5714286,6.8571429 V 5.7497143 c 0,-0.6377143 0.5051428,-1.1782857 1.1428571,-1.1782857 z m 4.5714283,0 c 0.637715,0 1.142857,0.5405714 1.142857,1.1782857 V 6.8571429 C 11.428571,7.4948571 10.923429,8 10.285714,8 9.648,8 9.142857,7.4948571 9.142857,6.8571429 V 5.7497143 C 9.142857,5.112 9.648,4.5714286 10.285714,4.5714286 Z m 3.428572,6.7920004 C 12.838857,10.874286 11.872,10.312 10.884571,10.289143 c -0.745142,0.02286 -1.416,0.747428 -1.741714,0.796571 -0.6194284,0.358857 -1.782857,0.224 -2.2857141,0 -1.048,-0.499428 -1.0525715,-0.777143 -1.7634286,-0.8 C 4.1188571,10.307429 3,10.747429 2.2857143,11.363429 V 10.792 c 0.4822857,-1.2411429 2.72,-2.3371429 4.5714286,-0.9954286 0.4,0.2514286 0.488,0.3051426 1.16,0.3851426 C 8.2,10.244574 8.6937143,10.142854 9.142857,9.7965714 c 1.808,-1.3177143 3.762286,-0.136 4.571429,0.9942856 z"
     id="path2"
     style="fill:#eab305;fill-opacity:1;stroke-width:1.14285719"
     inkscape:connector-curvature="0" />
  <path
     style="opacity:0.2;fill:#000000;fill-opacity:1;stroke-width:1.14285719"
     d="M 5.7142857,4 C 5.0765714,4 4.5714286,4.5408571 4.5714286,5.1785714 V 5.75 c 0,-0.6377143 0.5051428,-1.1785714 1.1428571,-1.1785714 0.6377143,0 1.1785714,0.5408571 1.1785714,1.1785714 V 5.1785714 C 6.8928571,4.5408571 6.352,4 5.7142857,4 Z M 10.285714,4 C 9.648,4 9.142857,4.5408571 9.142857,5.1785714 V 5.75 c 0,-0.6377143 0.505143,-1.1785714 1.142857,-1.1785714 0.637715,0 1.142857,0.5408571 1.142857,1.1785714 V 5.1785714 C 11.428571,4.5408571 10.923429,4 10.285714,4 Z m 5.700893,3.6517857 A 8,8 0 0 1 8,15.428571 8,8 0 0 1 0.0133929,7.7767857 8,8 0 0 0 8,16 8,8 0 0 0 15.986607,7.6517857 Z M 4.7232143,8.6227679 c -1.1499777,0.1026115 -2.1360714,0.8225 -2.4375,1.5982141 v 0.571428 c 0.4822857,-1.2411421 2.72,-2.3372493 4.5714286,-0.995535 0.4,0.251428 0.4887142,0.303929 1.1607142,0.383929 0.1828572,0.06286 0.6758572,-0.03764 1.1249999,-0.383929 1.808,-1.3177143 3.762286,-0.1369821 4.571429,0.993303 V 10.21875 C 12.905143,9.0884643 10.950857,7.9077321 9.142857,9.2254464 8.6937143,9.5717321 8.2007143,9.6722321 8.0178571,9.609375 7.3458571,9.529375 7.2571429,9.476875 6.8571429,9.2254464 6.1628571,8.7223035 5.4132009,8.5612009 4.7232143,8.6227679 Z"
     id="path823"
     inkscape:connector-curvature="0" />
  <path
     style="opacity:0.3;fill:#ffffff;fill-opacity:1;stroke-width:1.14285719"
     d="M 8,0 A 8,8 0 0 0 0.0133929,8.3482143 8,8 0 0 1 8,0.57142857 8,8 0 0 1 15.986607,8.2232143 8,8 0 0 0 8,0 Z M 4.5714286,6.8571429 v 0.5714285 c 0,0.6377143 0.5051428,1.1428572 1.1428571,1.1428572 0.6377143,0 1.1785714,-0.5051429 1.1785714,-1.1428572 V 6.8571429 C 6.8928571,7.4948571 6.352,8 5.7142857,8 5.0765714,8 4.5714286,7.4948571 4.5714286,6.8571429 Z m 4.5714284,0 v 0.5714285 c 0,0.6377143 0.505143,1.1428572 1.142857,1.1428572 0.637715,0 1.142857,-0.5051429 1.142857,-1.1428572 V 6.8571429 C 11.428571,7.4948571 10.923429,8 10.285714,8 9.648,8 9.142857,7.4948571 9.142857,6.8571429 Z M 5.0937499,10.285714 C 4.1188929,10.307429 3,10.747839 2.2857143,11.363839 v 0.571428 C 3,11.319267 4.1188929,10.878857 5.0937499,10.857143 c 0.7108573,0.02286 0.715393,0.299679 1.763393,0.799107 0.5028571,0.224 1.6662857,0.358857 2.2857141,0 0.325714,-0.04914 0.995929,-0.771786 1.741072,-0.794643 0.987428,0.02286 1.954928,0.584518 2.830357,1.07366 v -0.571428 c -0.875429,-0.489143 -1.842929,-1.050804 -2.830357,-1.073661 -0.745143,0.02286 -1.415358,0.745501 -1.741072,0.794644 -0.6194284,0.358857 -1.782857,0.224 -2.2857141,0 -1.048,-0.499429 -1.0525357,-0.776251 -1.763393,-0.799108 z"
     id="path826"
     inkscape:connector-curvature="0" />
</svg>
